src/pos-icons/star-half-full.svg

<svg height="24" viewBox="0 0 24 24" width="24" xmlns="http://www.w3.org/2000/svg"><path d="m12 15.4v-9.3l1.71 4.03 4.38.37-3.32 2.89.99 4.28m6.24-8.43-7.19-.61-2.81-6.63-2.81 6.63-7.19.61 5.45 4.73-1.63 7.03 6.18-3.73 6.18 3.73-1.64-7.03z"/></svg>

<?xml version="1.0" encoding="UTF-8"?><!DOCTYPE svg PUBLIC "-//W3C//DTD SVG 1.1//EN" "http://www.w3.org/Graphics/SVG/1.1/DTD/svg11.dtd"><svg xmlns="http://www.w3.org/2000/svg" xmlns:xlink="http://www.w3.org/1999/xlink" version="1.1" id="mdi-star-half-full" width="24" height="24" viewBox="0 0 24 24"><path d="M12,15.4V6.1L13.71,10.13L18.09,10.5L14.77,13.39L15.76,17.67M22,9.24L14.81,8.63L12,2L9.19,8.63L2,9.24L7.45,13.97L5.82,21L12,17.27L18.18,21L16.54,13.97L22,9.24Z" /></svg>
